!!!COM: Jules Massenet
!!!CNT: Francais
!!!TXO: Francais
!!!OTL: "Avril est la\!"
!!!LYR: Ferrand
!!!OPR: 
!!!OPS: Op. 
!!!ONM: No.
!!!ENC: Emily Thomas
!!!YOR: CD Sheet Music French Art Songs, The Ultimate Collection
!!!YOR: CD Sheet Music, LLC 2003
!!!ODT: 1899/
!!NB: Vocal melody and text encoded.
**kern	**silbe
=1	=1
*clefG2	*
*k[f#c#]	*
*M6/8	*
*MM[Bien anime/-tre\s alerte.]	*
2.r	.
=2	=2
2.r	.
=3	=3
2.r	.
=4	=4
4r	.
8r	.
4r	.
{8f#	{A-
=5	=5
4g	-vril
8b	est
4a	la\,
8cc#	chan-
=6	=6
4.ee}	-tant;}
8r	.
{8a	{c'est
8cc#	ta
=7	=7
4.ee	fe^-
8ee	-te,
8a	o^
8cc#	ma
=8	=8
4.ee	Blon-
4ee}	-de!}
8r	.
=9	=9
{4ff#	{Des
8ee	fan-
[4.dd	-fa-
=10	=10
8dd]	|
8cc#	-res
8dd	d'a-
[4.b	-mour
=11	=11
4.b]	|
8.cc#	son-
8.b	-nent
=12	=12
8.f#	en
[8.cc#	plein
4cc#]	|
8b	so-
=13	=13
[2.a	-leil;
=14	=14
4a]}	|}
8r	.
4r	.
8r	.
=15	=15
{[2.ccn	{Vois,
=16	=16
4.ccn]}	|}
4r	.
{8g	{les
=17	=17
4a	fleurs
8ccn	|
4b	ont
8dd#	jail-
=18	=18
4.ff#	-li
8r	.
8b	comme
8dd#	on
=19	=19
[4.ff#	sort
8ff#]	|
8b	du
8dd#	som-
=20	=20
[2.ff#	-meil
=21	=21
4ff#]}	|}
{8ff#	{A-
4gg	-pre\s
8ff#	un
=22	=22
4ff#	re^-
8b	-ve
[4.ee	bleu:
=23	=23
2.ee]}	|}
=24	=24
4r	.
8r	.
{4.ff#	{c'est
=25	=25
4.ee	le
4.dd	re/-
=26	=26
4.b	-veil
4dd}	|}
{8ff#	{du
=27	=27
[2.ee	mon-
=28	=28
2.ee_	|
=29	=29
2.ee]	|
=30	=30
4dd}	-de!}
8r	.
4r	.
8r	.
=31	=31
2.r	.
=32	=32
2.r	.
=33	=33
2.r	.
=34	=34
2.r	.
=35	=35
2.r	.
=36	=36
4r	.
8r	.
{8g#	{Les
8g#	ou-
8g#	-ra-
=37	=37
[4.dd	-gans
4dd]	|
8dd	ont
=38	=38
2.cc#}	fui,}
=39	=39
4r	.
8r	.
{4.b#	{plus
=40	=40
4.cc#	cal-
4.cc#	-mes
=41	=41
4.b#	sont
4.b#	les
=42	=42
2.cc#}	flots;}
=43	=43
2.r	.
=44	=44
{4.cc#	{Viens,
8r	.
8cc#	le
8cc#	veux-
=45	=45
[4.bn	-tu
4bn]	|
8ee	ma
=46	=46
4.ee	Blon-
4a}	-de?}
8r	.
=47	=47
2.r	.
=48	=48
4r	.
8r	.
8r	.
{8e	{Il
8f#	me
=49	=49
4gn	faut
8b	|
4a	ton
8cc#	e/-
=50	=50
4.ff#	-trein-
4ee}	-te!}
8r	.
=51	=51
4r	.
8r	.
8r	.
{8a	{Sais-
8cc#	-tu
=52	=52
4.ee	bien
4dd	que
8dd	l'ex-
=53	=53
4.ccn	-il
4.b-	m'ar-
=54	=54
4a	-ra-
8a	-che
4a	des
8a	san-
=55	=55
2.g#}	-glots;}
=56	=56
4a}	|}
8r	.
4r	.
8r	.
=57	=57
4r	.
8r	.
8r	.
{8g#	{Que
8g#	je
=58	=58
[4.a	meurs,
8a]	|
8a	cha-
8a	-que
=59	=59
4.g#}	jour,}
8r	.
{8g#	{fou
8g#	d'es-
=60	=60
[4.a	-poir
8a]	|
8a	et
8ccn	de
=61	=61
[2.ee-	crain-
=62	=62
2.ee-]	|
=63	=63
4a}	-te!}
8r	.
4r	.
8r	.
=64	=64
*k[b-e-]	*
*M4/4	*
*MM[Tre\s chaleureux.]	*
{[2dd	{Vois!
8dd]}	|}
8r	.
8r	.
{8f	{je
=65	=65
4dd	cour-
8cc	-be
8dd	le
4.b-	front
8f	sous
=66	=66
8g	ta
8g	char-
8f	-man-
8g	-te
4e-}	loi,}
8r	.
{8e-	{Et
=67	=67
8ee-	j'ai
8ee-	le
8dd	de/-
8ee-	-sir
8cc	fou
8cc	de
8b-	n'e^-
8cc	-tre
=68	=68
4.a	rien
8a	qu'a\
4f}	toi!..}
8r	.
{8f	{Et
=69	=69
8ff	tou-
8ff	-te
8ee-	je
8ff	te
4dd}	veux,}
{8g	{en
8g	un
=70	=70
4gg	flot
8ffn	de
8gg	ten-
4ee-	-dres-
8ee-}	-ses.}
8r	.
=71	=71
{[8ee-	{Oh!
16ee-]	|
16r	.
[4gg	tou-
8gg]	|
8ff	-te,
8ee-	ma
8cc	jo-
=72	=72
8a	-li-
8b-	-e,
2ff}	toute}
{8dd	{en
8b-	la
=73	=73
4g	joie
2ee-	|
4a	d'ai-
=74	=74
*M6/8	*
[2.b-	-mer!
=75	=75
4b-]}	|}
8r	.
4r	.
8r	.
=76	=76
{[4.b-	{Viens
8b-]	|
8f	le
8f	veux-
=77	=77
[4.b-	-tu?
4b-]}	|}
8r	.
=78	=78
{[4.cc	{Viens,
8cc]	|
8g	le
8g	veux-
=79	=79
[4.cc	-tu?
4cc]}	|}
8r	.
=80	=80
*k[f#c#]	*
{[2.cc#	{Viens!
=81	=81
4.cc#]	|
8r	.
8e	Les
8f#	|
=82	=82
4g	pa-
8b	-ra-
4a	-dis
8cc#	ou-
=83	=83
4.ee}	-verts}
8r	.
{8e	{vien
8f#	|
=84	=84
4g	-dront
8b	nous
4a	par-
8cc#	-fu-
=85	=85
[2.ff#	-mer,
=86	=86
2.ff#_	|
=87	=87
2.ff#]}	|}
=88	=88
{4.gg	{Dans
8.dd	le
8.b-	ver-
=89	=89
[4.gg	-ti-
4gg	-ge
8dd	heu-
=90	=90
[2.ff#	-reux
=91	=91
4.ff#]}	|}
{8.f#	{des
8.g	trou-
=92	=92
8.a	blan-
8.bn	|
4cc#	-tes
8dd	i-
=93	=93
2.ff#	-vres
=94	=94
[2.ee	|
=95	=95
2.ee]	|
=96	=96
4ee}	-ses!}
8r	.
{4.ee	{Viens!
=97	=97
4ee]}	|}
8r	.
{8.ee	{le
8i.a	veux-
=98	=98
[2.dd	-tu?
=99	=99
2.dd]}	|}
=100	=100
4r	.
8r	.
{[4.ff#	{Viens!
=101	=101
4ff#]	|
8cc#	ma
[4.ff#	Blon-
=102	=102
2.ff#_	|
=103	=103
4.ff#]	|
4cc#}	-de!}
8r	.
=104	=104
{[2.ff#	{Viens!..
=105	=105
2.ff#_	|
=106	=106
2.ff#]}	|}
=107	=107
2.r	.
=108	=108
{2.dd}	{viens!}
==	==
*-	*-
